localPackages/DesignSystem/Sources/DesignSystem/Resources/Assets.xcassets/IconSet/ic-pin-filled.imageset/ic-pin-filled.svg

<svg width="24" height="24" viewBox="0 0 24 24" fill="none" xmlns="http://www.w3.org/2000/svg">
<g id="ic-pin-filled">
<path id="Icon" d="M11.2467 18H3.69199C3.27476 18 2.9286 17.66 3.01268 17.2543C3.46086 15.0917 5.76351 13.8105 6.59923 13.4109C6.78707 13.3211 6.92512 13.1512 6.96196 12.9475L8.43561 4.79656C8.46935 4.60996 8.41226 4.4185 8.28165 4.28019L6.61032 2.51037C6.24845 2.12717 6.52214 1.5 7.05124 1.5H16.9531C17.4822 1.5 17.7559 2.12716 17.394 2.51036L15.7227 4.28019C15.5921 4.4185 15.535 4.60995 15.5687 4.79656L17.0424 12.9475C17.0792 13.1512 17.2173 13.3211 17.4051 13.4109C18.2408 13.8105 20.5391 15.0874 20.9873 17.25C21.0714 17.6557 20.7252 17.9957 20.308 17.9957L12.7576 18V23.25C12.7576 23.6642 12.4194 24 12.0022 24C11.5849 24 11.2467 23.6642 11.2467 23.25V18Z" fill="#0F0F0F"/>
</g>
</svg>

<svg xmlns="http://www.w3.org/2000/svg" width="24" height="24" viewBox="0 0 24 24">
  <g class="ic-pin-filled">
    <path d="M11.247 18H3.692c-.417 0-.763-.34-.68-.746.449-2.162 2.752-3.444 3.587-3.843a.646.646 0 0 0 .363-.463l1.474-8.151a.597.597 0 0 0-.154-.517L6.61 2.51a.6.6 0 0 1 .441-1.01h9.902a.6.6 0 0 1 .441 1.01l-1.671 1.77a.597.597 0 0 0-.154.517l1.473 8.15a.646.646 0 0 0 .363.464c.836.4 3.134 1.676 3.582 3.839.084.406-.262.746-.679.746l-7.55.004v5.25c0 .414-.339.75-.756.75a.753.753 0 0 1-.755-.75V18Z" class="Icon"/>
  </g>
</svg>
